icons-common/USB.svg

<svg height="1em" width="auto" viewBox="0 0 105 105" fill="currentColor" xmlns="http://www.w3.org/2000/svg">
    <path d="M51.2099 61.4489L68.0095 48.3618L66.3122 51.7391L66.8344 35.8236C66.9215 33.7972 68.6624 32.193 70.7514 32.2352C72.7535 32.3196 74.3638 33.8816 74.4508 35.8236L74.9731 51.7391C75.0166 53.0901 74.3638 54.3143 73.3193 55.0742C73.3193 55.1165 55.8233 67.2748 55.8233 67.3592C51.8628 70.1033 47.4235 64.4463 51.2099 61.4911V61.4489Z"
          />
    <path d="M51.2099 70.399L33.714 58.1563C32.5824 57.3964 32.0166 56.0877 32.0166 54.8212L32.5389 38.9056C32.6259 36.8792 34.3668 35.275 36.4559 35.3172C38.4579 35.4017 40.0682 36.9637 40.1553 38.9056L40.6775 54.8212L38.9802 51.4439L55.7798 64.5309C59.5662 67.4861 55.1269 73.1431 51.1664 70.399H51.2099Z"
          />
    <path d="M57.3032 31.5595C58.0431 45.2376 58.0431 58.9579 57.3032 72.636C57.1726 74.6624 55.3447 76.2244 53.2556 76.0978C51.2971 75.9711 49.8174 74.4513 49.6868 72.636C49.2516 65.797 49.2081 58.9579 49.1646 52.1189C49.2081 45.2798 49.2516 38.4408 49.6868 31.6017C49.8174 29.5754 51.6453 28.0134 53.7344 28.14C55.6929 28.2667 57.1726 29.7864 57.3032 31.6017V31.5595Z"
          />
</svg>

<svg xmlns="http://www.w3.org/2000/svg" width="auto" height="1em" fill="currentColor" viewBox="0 0 105 105">
    <path d="m51.21 61.449 16.8-13.087-1.698 3.377.522-15.915c.087-2.027 1.828-3.631 3.917-3.589 2.002.085 3.613 1.647 3.7 3.589l.522 15.915c.044 1.351-.61 2.575-1.654 3.335 0 .043-17.496 12.2-17.496 12.285-3.96 2.744-8.4-2.913-4.613-5.868z"/>
    <path d="M51.21 70.399 33.714 58.156c-1.132-.76-1.697-2.068-1.697-3.335l.522-15.915c.087-2.027 1.828-3.631 3.917-3.589 2.002.085 3.612 1.647 3.7 3.589l.522 15.915-1.698-3.377 16.8 13.087c3.786 2.955-.653 8.612-4.614 5.868z"/>
    <path d="M57.303 31.56c.74 13.678.74 27.398 0 41.076-.13 2.026-1.958 3.588-4.047 3.462-1.959-.127-3.439-1.647-3.57-3.462-.434-6.839-.478-13.678-.521-20.517.043-6.84.087-13.678.522-20.517.13-2.027 1.958-3.589 4.047-3.462 1.959.127 3.439 1.646 3.57 3.462z"/>
</svg>
